X:1
T:Title
%%score ( 1 2 ) ( 3 4 )
L:1/8
Q:1/4=100
M:4/4
K:D
V:1 treble nm="Midi_20"
V:2 treble 
V:3 bass nm="Midi_20"
V:4 bass 
V:1
"^Father, let me dedicate (75. 75. D)""^G. A. MacFarren\n(1813-87)""^Lawrence Tuttiett\n(1825-97)""^Father, let me dedicate" A2 F2 G2 A2 | %1
 B3 B B4 || c2 B2 A3 G | F8 || G2 B2 e2 d2 | c3 B A4 || B3 F F2 ^G2 | A8 || G3 G F2 F2 | B3 B A4 || %10
 d3 A G2 F2 | (F4 E4) || D3 E F2 G2 | A2 B2 c4 || d3 B B2 e2 | d8 |] %16
V:2
 F2 D2 D2 F2 | F3 E E4 || G2 F2 E2 C2 | D8 || D2 G2 A2 A2 | A2 E2 E4 || F3 D D2 D2 | C8 || %8
 D3 D C2 C2 | B,2 C2 (D2 E2) || D2 D2 C2 D2 | (D4 C4) || D3 C D2 D2 | F2 D2 F4 || F3 G G2 G2 | %15
 F8 |] %16
V:3
 D2 A,2 D2 C2 | B,3 B, (B,2 A,2) || G,2 B,2 E2 A,2 | A,8 || G,2 D2 C2 D2 | E2 ^G,2 (A,2 B,C) || %6
 D3 B, B,2 B,2 | A,8 || %8
"^1. Father, let me dedicate\nAll my times to Thee,\nIn whatever worldly state\nThou wilt have me be;\nNot from sorrow, pain or care\nFreedom dare I claim;\nThis alone shall be my prayer,\n'Glorify Thy Name!'\n\n2. Can a child presume to choose\nWhere or how to live?\nCan a father's love refuse\nAll the best to give?\nMore thou givest every day\nThan the best can claim,\nNor withholdest aught that may\nGlorify Thy Name." B,3 B, A,2 A,2 | %9
 G,3 G, (F,2 E,2) || A,2 A,2 A,2 A,2 | A,8 || %12
"^3. If Thou callest to the cross,\nAnd its shadow come,\nTurning all my gain to loss,\nShrouding heart and home,\nLet me think how Thy dear Son\nto His glory came,\nAnd in deepest woe pray on,\n'Glorify Thy Name!'\n\n4. If in mercy Thou wilt spare\nJoys that yet are mine,\nIf on life, serene and fair,\nBrighter rays may shine,\nLet my glad heart, while it sings,\nThee in all proclaim,\nAnd, whate'er the future brings,\nGlorify Thy Name." A,3 G, F,2 D2 | %13
 D2 B,2 ^A,4 || B,3 B, B,2 C2 | D8 |] %16
V:4
 D,3 C, B,,2 A,,2 | G,,2 G,2 (G,2 F,2) || E,2 D,2 C,2 A,,2 | D,8 || B,,2 G,,2 G,2 F,2 | %5
 E,2 D,2 C,4 || B,,3 E, E,2 E,2 | A,,8 || A,,3 A,, A,,2 A,,2 | A,,2 A,,2 (A,,2 G,,2) || %10
 F,,2 F,2 E,2 D,2 | (A,6 G,2) || F,3 E, D,2 B,2 | A,2 G,2 F,4 || B,,3 E, E,2 A,,2 | D,8 |] %16

